X: 131
T:Sweeney's Buttermilk
M:C|
L:1/8
C:Brendan McGlinchey
R:Reel
K:BDor
FB~B2 FB~B2|dcBc AE~E2|FB~B2 ABce|afec Baga|!
~f3a fecf|eAcA BAFE|FB~B2 ABce|afec B2BA:|!
|:FBdc BF~F2|EAcB AE~E2|FBdc Bdfb|afec d2cd|!
Bcde eB~B2|afec ABce|fefa bf~f2|afec B2BA:|]!
